X:065
T:Hornpipe TS.065
M:C
L:1/8
Q:1/2=90
S:Thomas Sands’ MS,1810,Lincolnshire
R:.hornpipe
O:England;Lincolnshire
Z:vmp.Ruairidh Greig, 2011
K:D
A|dAFA dfed|ecAc egfe|fafd gbae|fafd dcBA|
dAeA fAeA|fafd dcBA|bgbg fedc|d2d2d2z:|
|:fg|afaf dfaf|bgbg fedc|dfaf gbge|fafd dcBA|
dAeA fAeA|fafd dcBA|bgbg fedc|d2d2d2:|]

